X:1
T:Standin In The Need of Prayer
T:Judgement Day is rolling round
T:Copyright 1881 by The Riverside Press
T:Rodeheaver's Plantation Melodies
T:Rodeheaver's Plantation Melodies
Z:Rodeheaver's Plantation Melodies
%%score [ 1 2 3 4 ]
L:1/8
Q:1/4=80
M:4/4
K:F
V:1 treble nm="Soprano" snm="S."
V:2 treble nm="Alto" snm="A."
V:3 bass nm="Tenor" snm="T."
V:4 bass nm="Bass" snm="B."
V:1
 F2 (F4 c2) | d2 c6 | d2 c2 c3 A | c2 A>G F4 | F2 (F4 c2) | d2 c4 c2 | c A3 G3 F | F6 || FF | %9
 F F3 FFDC | DF F2 (FG A2) | G G3 (G F2) G | A2 F2 F2 FF | F F3 FFDC | DF F2 F2 c2 | c A3 G3 F | %16
 F6 z2 |] %17
V:2
 F2 ((F4 c2)) | d2 c6 | d2 c2 c3 A | c2 A>G F4 | F2 ((F4 c2)) | d2 c4 c2 | c A3 G3 F | F6 || FF | %9
w: Judge- ment- .|Judge- ment.|Judge- ment day is|roll- ing a- round.|Judge- ment- .|Judge- ment. O|how I long to|go.|I've a|
 F F3 FFDC | DF F2 (FG A2) | G G3 (G F2) G | A2 F2 F2 FF | F F3 FFDC | DF F2 F2 c2 | c A3 G3 F | %16
w: good old moth- er in the|Heav- en my Lord- * .|How I long- * to|go there too. I've a|good old moth- er in the|Heav- en my Lord. O|how I long to|
 F6 z2 |] %17
w: go.|
V:3
 C2 C6 | F2 F6 | F2 F2 F3 C | C2 C>C C4 | C2 C6 | F2 F4 C2 | C C3 B,3 A, | A,6 || z2 | z8 | z8 | %11
 C C3 C3 C | C2 C2 C2 z2 | z8 | z4 z2 C2 | C C3 B,3 A, | A,6 z2 |] %17
V:4
 F,2 F,6 | F,2 F,6 | F,2 F,2 F,3 F, | F,2 F,>F, F,4 | F,2 F,6 | C2 C4 F,2 | F, C,3 F,3 F, | F,6 || %8
 z2 | z8 | z8 | C, C,3 C,3 C, | F,2 F,2 F,2 z2 | z8 | z4 z2 F,2 | F, F,3 C,3 F, | F,6 z2 |] %17

